!!!COM:	Du Fay, Guillaume
!!!CDT:	~1397/08/05/-1474/11/27
!!!OPR:	Missa Ecce ancilla domini
!!!ONM:	5
!!!OTL:	Agnus Dei
!!!AGN:	Mass; Agnus Dei
!!!SCT:	Duf1003e
!!!SCA:	Duf1003e
!!!voices:	4
!!!voices-OPR:	4
**kern	**text	**kern	**text	**kern	**text	**kern	**text
*staff4	*staff4	*staff3	*staff3	*staff2	*staff2	*staff1	*staff1
*Ivox	*	*Ivox	*	*Ivox	*	*Ivox	*
*I"Tenor2	*	*I"Tenor1	*	*I"Contratenor	*	*I"Cantus	*
*I'T2	*	*I'T1	*	*I'Ct	*	*I'Cn	*
*>[A,B,C]	*>[A,B,C]	*>[A,B,C]	*>[A,B,C]	*>[A,B,C]	*>[A,B,C]	*>[A,B,C]	*>[A,B,C]
*>A	*>A	*>A	*>A	*>A	*>A	*>A	*>A
*clefF4	*	*clefGv2	*	*clefGv2	*	*clefG2	*
*k[b-]	*	*k[]	*	*k[]	*	*k[]	*
*M3/1	*	*M3/1	*	*M3/1	*	*M3/1	*
*met(O)	*	*met(O)	*	*met(O)	*	*met(O)	*
!!section: Agnus Dei I
!!!OMD: Agnus Dei I
=1-	=1-	=1-	=1-	=1-	=1-	=1-	=1-
0.r	.	0.r	.	1.G	A-	0.g	A-
.	.	.	.	2A/	.	.	.
.	.	.	.	1B	.	.	.
=2	=2	=2	=2	=2	=2	=2	=2
0.r	.	0.r	.	1c	.	1e	.
.	.	.	.	1.d	.	1.f	.
.	.	.	.	2c\	.	2e/	.
=3	=3	=3	=3	=3	=3	=3	=3
0.r	.	0.r	.	0c	.	1e	.
.	.	.	.	.	.	1.a	.
.	.	.	.	1c	.	.	.
.	.	.	.	.	.	2g/	.
=4	=4	=4	=4	=4	=4	=4	=4
0.r	.	0.r	.	1B	.	1.g	.
.	.	.	.	0A	.	.	.
.	.	.	.	.	.	2f#i/	.
.	.	.	.	.	.	2f#i/	.
.	.	.	.	.	.	2e/	.
=5	=5	=5	=5	=5	=5	=5	=5
0.r	.	0.r	.	0G	-gnus	1g	-gnus
.	.	.	.	.	.	1e	.
.	.	.	.	1A	de-	1f	de-
=6	=6	=6	=6	=6	=6	=6	=6
0.r	.	0.r	.	2G/	.	2e/	.
.	.	.	.	2F/	.	2.d/	.
.	.	.	.	2G/	.	.	.
.	.	.	.	.	.	4c/	.
.	.	.	.	2E/	.	1c	.
.	.	.	.	1D	.	.	.
.	.	.	.	.	.	2B/	.
=7	=7	=7	=7	=7	=7	=7	=7
0.r	.	0.G	Ec-	0.C	-i	0c	-i
.	.	.	.	.	.	1r	.
=8	=8	=8	=8	=8	=8	=8	=8
[0.C	Qui	0.c	.	1r	.	1.e	qui
.	.	.	.	1G	qui	.	.
.	.	.	.	.	.	2f/	.
.	.	.	.	1E	.	1g	.
=9	=9	=9	=9	=9	=9	=9	=9
0.C]	.	0.c	-ce	2F/	tol-	2a/	tol-
.	.	.	.	1G	.	1g	.
.	.	.	.	2A/	.	2f/	.
.	.	.	.	2E/	.	1e	.
.	.	.	.	2F/	.	.	.
=10	=10	=10	=10	=10	=10	=10	=10
0GG	tol-	0.B	.	1.G	.	0.d	-lis
.	.	.	.	2F/	.	.	.
1GG	-lis	.	.	1D	.	.	.
=11	=11	=11	=11	=11	=11	=11	=11
1G	pec-	0.r	.	0.C	-lis	0.e	pec-
2E\	-ca-	.	.	.	.	.	.
2F\	.	.	.	.	.	.	.
1G	.	.	.	.	.	.	.
=12	=12	=12	=12	=12	=12	=12	=12
0D	.	0.A	an-	0.r	.	0f	-ca-
1D	-ta	.	.	.	.	1f	-ta
=13	=13	=13	=13	=13	=13	=13	=13
1GG	mun-	0.G	.	1D	pec-	2.g/	mun-
.	.	.	.	.	.	4f/	.
1C	.	.	.	1E	-ca-	2e/	.
.	.	.	.	.	.	2c/	.
1BB-	.	.	.	1D	-ta	1d	.
=14	=14	=14	=14	=14	=14	=14	=14
1AA	.	0.A	-cil-	2C/	mun-	1e	.
.	.	.	.	2E/	.	.	.
2D\	.	.	.	2D/	.	2f/	.
2C/	.	.	.	2E/	.	2e/	.
1AA	.	.	.	2.F#i/	.	1c	.
.	.	.	.	4E/	.	.	.
=15	=15	=15	=15	=15	=15	=15	=15
0.GG	-di,	0.B	.	0.G	-di,	1d	-di,
.	.	.	.	.	.	1r	.
.	.	.	.	.	.	2d/	pec-
.	.	.	.	.	.	2e/	.
=16	=16	=16	=16	=16	=16	=16	=16
0.r	.	0.A	-la	0.D	pec-	1.f	-ca-
.	.	.	.	.	.	2g/	.
.	.	.	.	.	.	1a	.
=17	=17	=17	=17	=17	=17	=17	=17
1GG	pec-	1G	do-	1D	-ca-	1b	.
1AA	.	2E/	.	1C	.	2cc\	.
.	.	2F/	.	.	.	2a/	.
1GG	.	1G	.	1D	.	1b	.
=18	=18	=18	=18	=18	=18	=18	=18
2D\	-ca-	2A/	.	2r	.	1a	.
4E\	.	2c\	.	2A/	.	.	.
4F\	.	.	.	.	.	.	.
2G\	.	2B\	.	2B\	.	2g/	.
2E\	.	2G/	.	2c\	.	1g	.
1D	.	1A	.	1d	.	.	.
.	.	.	.	.	.	2f#i/	.
=19	=19	=19	=19	=19	=19	=19	=19
1E	-ta	0.G	-mi-	1B	-ta	1g	-ta
0C	.	.	.	0c	.	2r	.
.	.	.	.	.	.	1e	mun-
.	.	.	.	.	.	2c/	.
=20	=20	=20	=20	=20	=20	=20	=20
1C	mun-	0.G	-ni:	1r	.	2.e/	.
.	.	.	.	.	.	4f/	.
1BB-	.	.	.	1r	.	1d	.
2.C/	.	.	.	1G	mun-	2e/	.
.	.	.	.	.	.	[2c/	.
4D\	.	.	.	.	.	.	.
=21	=21	=21	=21	=21	=21	=21	=21
2E\	.	0.r	.	2C/	.	4c/]	.
.	.	.	.	.	.	4B/	.
2G\	.	.	.	2E/	.	2c/	.
1F	.	.	.	1D	.	2d/	.
.	.	.	.	.	.	2B/	.
1G	.	.	.	[1C	.	1c	.
=22	=22	=22	=22	=22	=22	=22	=22
2E\	.	0.r	.	2C/]	.	2.g/	.
2C/	.	.	.	1c	.	.	.
.	.	.	.	.	.	4f/	.
2E\	.	.	.	.	.	2g/	.
2F\	.	.	.	2A/	.	2a/	.
1D	.	.	.	2.B\	.	1f	.
.	.	.	.	4A/	.	.	.
=23	=23	=23	=23	=23	=23	=23	=23
1C	.	0.G	Fi-	1c	.	1e	-di,
1GG	.	.	.	2B\	.	1r	.
.	.	.	.	2d\	.	.	.
[1C	.	.	.	2c\	.	1r	.
.	.	.	.	[2e\	.	.	.
=24	=24	=24	=24	=24	=24	=24	=24
2C/]	.	1E	.	2e\]	.	0.r	.
2AA/	.	.	.	2c\	.	.	.
2BB-/	.	2D/	.	2d\	.	.	.
2C/	.	1G	.	2c\	.	.	.
1D	.	.	.	4B\	.	.	.
.	.	.	.	2B\	.	.	.
.	.	2F/	.	.	.	.	.
.	.	.	.	4A/	.	.	.
=25	=25	=25	=25	=25	=25	=25	=25
0C	-di,	0G	-at	1c	-di,	0e	mi-
.	.	.	.	1r	.	.	.
1r	.	1F	mi-	1A	mi-	2f/	.
.	.	.	.	.	.	2d/	.
=26	=26	=26	=26	=26	=26	=26	=26
0.r	.	2G/	.	2B\	-se-	1e	-se-
.	.	2A/	.	2c\	.	.	.
.	.	2D/	.	2d\	-re-	2f/	-re-
.	.	2F/	.	1A	.	1d	.
.	.	1E	.	.	.	.	.
.	.	.	.	2G/	.	2c#i/	.
=27	=27	=27	=27	=27	=27	=27	=27
1r	.	0D	-hi	0A	.	1.d	.
1r	.	.	.	.	.	.	.
.	.	.	.	.	.	2e/	.
1BB-	mi-	1D	se-	1d	.	2f/	.
.	.	.	.	.	.	2g/	.
=28	=28	=28	=28	=28	=28	=28	=28
1C	-se-	1E	-cun-	2c\	.	1e	.
.	.	.	.	2B\	.	.	.
0D	.	0F	-dum	1A	-re	1d	.
.	.	.	.	1d	.	1a	.
=29	=29	=29	=29	=29	=29	=29	=29
1GG	-re-	1G	ver-	2r	.	2.g/	.
.	.	.	.	1.D	no-	.	.
.	.	.	.	.	.	4f/	.
1BB-	.	2F/	.	.	.	1d	.
.	.	2G/	.	.	.	.	.
2AA/	.	1A	.	2E/	.	2c/	.
[2D\	.	.	.	2F/	.	2d/	.
=30	=30	=30	=30	=30	=30	=30	=30
2D\]	.	1A	-bum	2D/	.	2f/	.
1C	.	.	.	1E	.	2e/	.
.	.	2G/	.	.	.	2c/	.
2BB-/	.	1G	.	2D/	.	2d/	.
1AA	.	.	.	2E/	.	2c/	.
.	.	2F#i/	.	2C/	.	2A/	.
=31	=31	=31	=31	=31	=31	=31	=31
0GG	-re	[0.G	tu-	0D	.	1B	-re
.	.	.	.	.	.	1G 1d	.
2.C/	no-	.	.	1E	.	2r	.
.	.	.	.	.	.	[2g/	no-
4D\	.	.	.	.	.	.	.
=32	=32	=32	=32	=32	=32	=32	=32
1E	.	0.G]	.	1C	.	4g/]	.
.	.	.	.	.	.	4f/	.
.	.	.	.	.	.	2g/	.
1C	.	.	.	1E	.	2e/	.
.	.	.	.	.	.	2c/	.
1GG 1BBni	.	.	.	1D	.	1d	.
=33	=33	=33	=33	=33	=33	=33	=33
0.Cl	-bis.	0.Gl	-um.	0.Cl	-bis.	1.e	.
.	.	.	.	.	.	2c/	.
.	.	.	.	.	.	1cl	-bis.
!!LO:LB:i:g=z
=34||	=34||	=34||	=34||	=34||	=34||	=34||	=34||
*>B	*>B	*>B	*>B	*>B	*>B	*>B	*>B
*clefF4	*	*clefGv2	*	*clefGv2	*	*clefG2	*
*k[b-]	*	*k[]	*	*k[]	*	*k[]	*
*M3/1	*	*M3/1	*	*M2/1	*	*M2/1	*
*met(C|)	*	*met(C|)	*	*met(C|)	*	*met(C|)	*
!!section: Agnus Dei II
!!!OMD: Agnus Dei II
0r	.	0r	.	0r	.	1.c	A-
.	.	.	.	.	.	2d/	.
=35.	=35	=35.	=35	=35.	=35	=35.	=35
0r	.	0r	.	0r	.	1e	.
.	.	.	.	.	.	1f	.
=36	=36	=36	=36	=36	=36	=36	=36
0r	.	0r	.	1.C	A-	[0g	-gnus
.	.	.	.	2D/	.	.	.
=37.	=37	=37.	=37	=37.	=37	=37.	=37
0r	.	0r	.	1E	.	1g]	.
.	.	.	.	1F	.	1a	de-
=38	=38	=38	=38	=38	=38	=38	=38
0r	.	0r	.	[0G	-gnus	1g	.
.	.	.	.	.	.	[1e	.
=39.	=39	=39.	=39	=39.	=39	=39.	=39
0r	.	0r	.	1G]	.	1e]	.
.	.	.	.	1A	de-	1f	.
=40	=40	=40	=40	=40	=40	=40	=40
0r	.	0r	.	1G	.	0g	.
.	.	.	.	[1E	.	.	.
=41.	=41	=41.	=41	=41.	=41	=41.	=41
0r	.	0r	.	1E]	.	0c	-i,
.	.	.	.	1F	.	.	.
=42	=42	=42	=42	=42	=42	=42	=42
0r	.	0r	.	0G	.	1r	.
.	.	.	.	.	.	1B	qui
=43.	=43	=43.	=43	=43.	=43	=43.	=43
0r	.	0r	.	0C	-i,	1c	.
.	.	.	.	.	.	1e	.
=44	=44	=44	=44	=44	=44	=44	=44
0r	.	0r	.	1r	.	0d	.
.	.	.	.	1BB	qui	.	.
=45.	=45	=45.	=45	=45.	=45	=45.	=45
0r	.	0r	.	1C	.	0c	.
.	.	.	.	1E	.	.	.
=46	=46	=46	=46	=46	=46	=46	=46
0r	.	0r	.	0D	.	1r	.
.	.	.	.	.	.	1f	tol-
=47.	=47	=47.	=47	=47.	=47	=47.	=47
0r	.	0r	.	0C	.	1e	.
.	.	.	.	.	.	1c	.
=48	=48	=48	=48	=48	=48	=48	=48
0r	.	0r	.	1r	.	0d	.
.	.	.	.	1F	tol-	.	.
=49.	=49	=49.	=49	=49.	=49	=49.	=49
0r	.	0r	.	1E	.	0e	-lis
.	.	.	.	1C	.	.	.
=50	=50	=50	=50	=50	=50	=50	=50
0r	.	0r	.	0D	.	1r	.
.	.	.	.	.	.	1a	pec-
=51.	=51	=51.	=51	=51.	=51	=51.	=51
0r	.	0r	.	0E	-lis	1g	-ca-
.	.	.	.	.	.	1e	.
=52	=52	=52	=52	=52	=52	=52	=52
0r	.	0r	.	1r	.	0f	.
.	.	.	.	1A	pec-	.	.
=53.	=53	=53.	=53	=53.	=53	=53.	=53
0r	.	0r	.	1G	-ca-	0g	-ta
.	.	.	.	1E	.	.	.
=54	=54	=54	=54	=54	=54	=54	=54
0r	.	0r	.	0F	.	1r	.
.	.	.	.	.	.	1cc	mun-
=55.	=55	=55.	=55	=55.	=55	=55.	=55
0r	.	0r	.	0G	-ta	1b	.
.	.	.	.	.	.	1g	.
=56	=56	=56	=56	=56	=56	=56	=56
0r	.	0r	.	1r	.	0a	.
.	.	.	.	1c	mun-	.	.
=57.	=57	=57.	=57	=57.	=57	=57.	=57
0r	.	0r	.	1B	.	1g	.
.	.	.	.	1G	.	[1e	.
=58	=58	=58	=58	=58	=58	=58	=58
0r	.	0r	.	0A	.	2e/]	.
.	.	.	.	.	.	2d/	.
.	.	.	.	.	.	1c	.
=59.	=59	=59.	=59	=59.	=59	=59.	=59
0r	.	0r	.	1G	.	1B	.
.	.	.	.	1E	.	1c	.
=60	=60	=60	=60	=60	=60	=60	=60
0r	.	0r	.	2F/	.	2d/	.
.	.	.	.	2.E/	.	2.c/	.
.	.	.	.	4D/	.	4B/	.
.	.	.	.	2C/	.	2A/	.
=61.	=61	=61.	=61	=61.	=61	=61.	=61
0r	.	0r	.	1BB	.	1G	.
.	.	.	.	1C	.	1A	.
=62	=62	=62	=62	=62	=62	=62	=62
0r	.	0r	.	0D	.	1.B	.
.	.	.	.	.	.	2A/	.
=63.	=63	=63.	=63	=63.	=63	=63.	=63
0r	.	0r	.	[0C	-di,	[0c	-di,
=64	=64	=64	=64	=64	=64	=64	=64
0r	.	0r	.	0C]	.	0c_	.
=65.	=65	=65.	=65	=65.	=65	=65.	=65
0r	.	0r	.	0r	.	0c]	.
=66	=66	=66	=66	=66	=66	=66	=66
*	*	*	*	*M3/1	*	*	*
*	*	*	*	*met(3)	*	*	*
*	*	*	*	*	*	*rscale:2/3	*
!!primary-mensuration: met(3)
0.r	.	0.r	.	0C	mi-	0.r	.
.	.	.	.	[1C	-se-	.	.
=67.	=67	=67.	=67	=67.	=67	=67.	=67
0.r	.	0.r	.	1C]	.	0.r	.
.	.	.	.	0BB	.	.	.
*	*	*	*	*	*	*rscale:1	*
=68	=68	=68	=68	=68	=68	=68	=68
*	*	*	*	*	*	*M3/1	*
*	*	*	*	*	*	*met(3)	*
0.r	.	0.r	.	1.C	-re-	0c	mi-
.	.	.	.	2D/	.	.	.
.	.	.	.	1E	.	[1c	-se-
=69.	=69	=69.	=69	=69.	=69	=69.	=69
0.r	.	0.r	.	1F	.	1c]	.
.	.	.	.	0D	.	0B	.
=70	=70	=70	=70	=70	=70	=70	=70
0.r	.	0.r	.	0.C	.	[0.c	-re-
=71.	=71	=71.	=71	=71.	=71	=71.	=71
0.r	.	0.r	.	0F	.	1c]	.
.	.	.	.	.	.	1f	.
.	.	.	.	1G	.	1e	.
=72	=72	=72	=72	=72	=72	=72	=72
0.r	.	0.r	.	0A	.	1c	.
.	.	.	.	.	.	0d	.
.	.	.	.	1B	.	.	.
=73.	=73	=73.	=73	=73.	=73	=73.	=73
0.r	.	0.r	.	0c	.	1e	.
.	.	.	.	.	.	0c	.
.	.	.	.	[1F	.	.	.
=74	=74	=74	=74	=74	=74	=74	=74
0.r	.	0.r	.	1F]	.	1f	.
.	.	.	.	1C	.	1e	.
.	.	.	.	1D	.	1f	.
=75.	=75	=75.	=75	=75.	=75	=75.	=75
0.r	.	0.r	.	1C	.	1g	.
.	.	.	.	0F	.	1.a	.
.	.	.	.	.	.	2f/	.
=76	=76	=6	=76	=76	=76	=76	=76
0.r	.	0.r	.	1A	.	0f	.
.	.	.	.	0G	.	.	.
.	.	.	.	.	.	1e	.
=77.	=77	=77.	=77	=77.	=77	=77.	=77
0.r	.	0.r	.	[0.F	-re	0.f	-re
=78	=78	=78	=78	=78	=78	=78	=78
0.r	.	0.r	.	0.F]	.	1r	.
.	.	.	.	.	.	1r	.
.	.	.	.	.	.	1f	no-
=79.	=79	=79.	=79	=79.	=79	=79.	=79
0.r	.	0.r	.	1r	.	1e	.
.	.	.	.	1r	.	0d	.
.	.	.	.	1F	no-	.	.
=80	=80	=80	=80	=80	=80	=80	=80
0.r	.	0.r	.	1E	.	1c	.
.	.	.	.	0D	.	1d	.
.	.	.	.	.	.	1f	.
=81.	=81	=81.	=81	=81.	=81	=81.	=81
0.r	.	0.r	.	1C	.	1e	.
.	.	.	.	1D	.	0a	.
.	.	.	.	1F	.	.	.
=82	=82	=82	=82	=82	=82	=82	=82
0.r	.	0.r	.	1E	.	1g	.
.	.	.	.	0A	.	1e	.
.	.	.	.	.	.	1f	.
=83.	=83	=83.	=83	=83.	=83	=83.	=83
0.r	.	0.r	.	1G	.	0g	.
.	.	.	.	1E	.	.	.
.	.	.	.	1F	.	1c	.
=84	=84	=84	=84	=84	=84	=84	=84
0.r	.	0.r	.	0G	.	1e	.
.	.	.	.	.	.	1.d	.
.	.	.	.	1C	.	.	.
.	.	.	.	.	.	2c/	.
=85.	=85	=85.	=85	=85.	=85	=85.	=85
0.r	.	0.r	.	1E	.	0c	.
.	.	.	.	0D	.	.	.
.	.	.	.	.	.	1B	.
=86	=86	=86	=86	=86	=86	=86	=86
0.r	.	0.r	.	1C	.	1c	.
.	.	.	.	1F	.	2d/	.
.	.	.	.	.	.	2c/	.
.	.	.	.	1D	.	2B/	.
.	.	.	.	.	.	2A/	.
=87.	=87	=87.	=87	=87.	=87	=87.	=87
0.r	.	0.r	.	1E	.	1G	.
.	.	.	.	1F	.	1A	.
.	.	.	.	1G	.	1B	.
=88	=88	=88	=88	=88	=88	=88	=88
0.r	.	0.r	.	1r	.	1G	.
.	.	.	.	0C	.	1r	.
.	.	.	.	.	.	[1c	.
=89.	=89	=89.	=89	=89.	=89	=89.	=89
0.r	.	0.r	.	0E	.	2c/]	.
.	.	.	.	.	.	2B/	.
.	.	.	.	.	.	1c	.
.	.	.	.	1F	.	1d	.
=90	=90	=90	=90	=90	=90	=90	=90
0.r	.	0.r	.	1G	.	0e	.
.	.	.	.	0A	.	.	.
.	.	.	.	.	.	1f	.
=91.	=91	=91.	=91	=91.	=91	=91.	=91
0.r	.	0.r	.	1G	.	1.g	.
.	.	.	.	0c	.	.	.
.	.	.	.	.	.	2f/	.
.	.	.	.	.	.	1e	.
=92	=92	=92	=92	=92	=92	=92	=92
0.r	.	0.r	.	1B	.	1d	.
.	.	.	.	2A/	.	1c	.
.	.	.	.	1c	.	.	.
.	.	.	.	.	.	1e	.
.	.	.	.	2B\	.	.	.
=93.	=93	=93.	=93	=93.	=93	=93.	=93
0.r	.	0.r	.	1G	.	1r	.
.	.	.	.	1F	.	1a	.
.	.	.	.	[1G	.	1g	.
=94	=94	=94	=94	=94	=94	=94	=94
0.r	.	0.r	.	1G]	.	1e	.
.	.	.	.	2A/	.	2f/	.
.	.	.	.	2G/	.	2e/	.
.	.	.	.	2F/	.	2d/	.
.	.	.	.	2E/	.	2c/	.
=95.	=95	=95.	=95	=95.	=95	=95.	=95
0.r	.	0.r	.	1F	.	1.d	.
.	.	.	.	0D	.	.	.
.	.	.	.	.	.	2A/	.
.	.	.	.	.	.	1B	.
=96	=96	=96	=96	=96	=96	=96	=96
0.r	.	0.r	.	0.Cl	-bis.	0.cl	-bis.
!!LO:LB:i:g=z
=97||	=97||	=97||	=97||	=97||	=97||	=97||	=97||
*>C	*>C	*>C	*>C	*>C	*>C	*>C	*>C
*clefF4	*	*clefGv2	*	*clefGv2	*	*clefG2	*
*k[b-]	*	*k[]	*	*k[]	*	*k[]	*
*M2/1	*	*M2/1	*	*M2/1	*	*M2/1	*
*met(C|)	*	*met(C|)	*	*met(C|)	*	*met(C|)	*
!!section: Agnus Dei III
!!!OMD: Agnus Dei III
[0C	A-	0G	Be-	0c	A-	[0e	A-
=98.	=98	=98.	=98	=98.	=98	=98.	=98
0C]	.	0G	-a-	1.c	-gnus	0e]	.
.	.	.	.	2B\	.	.	.
=99	=99	=99	=99	=99	=99	=99	=99
0C	-gnus	3%4cV	.	2A/	.	0e	-gnus
.	.	.	.	2G/	.	.	.
.	.	.	.	1G	.	.	.
.	.	3%2BZ	.	.	.	.	.
=100.	=100	=100.	=100	=100.	=100	=100.	=100
1D	de-	1A	-ta	1F	de-	1d	de-
1E	.	1G	.	1E	.	1c	.
=101	=101	=101	=101	=101	=101	=101	=101
1.F	.	0A	es,	0D	.	1d	.
.	.	.	.	.	.	1f	.
2E\	.	.	.	.	.	.	.
=102.	=102	=102.	=102	=102.	=102	=102.	=102
1C	.	1G	Ma-	1E	.	1e	.
1D	.	1F	.	1F	.	2.d/	.
.	.	.	.	.	.	4c/	.
=103	=103	=103	=103	=103	=103	=103	=103
1C	.	1G	-ri-	1E	.	0e	.
1AA	.	[1A	.	1C	.	.	.
=104.	=104	=104.	=104	=104.	=104	=104.	=104
0BB-	.	2A/]	.	0D	.	0d	.
.	.	2G/	.	.	.	.	.
.	.	2G/	.	.	.	.	.
.	.	2F/	.	.	.	.	.
=105	=105	=105	=105	=105	=105	=105	=105
0AA	.	0A	-a,	0E	.	0c	.
=106.	=106	=106.	=106	=106.	=106	=106.	=106
1D	.	0r	.	1F	.	1d	.
[1C	.	.	.	[1E	.	1e	.
=107	=107	=107	=107	=107	=107	=107	=107
1C]	.	0G	que	2E/]	.	1c	-i,
.	.	.	.	2D/	.	.	.
1BB-	.	.	.	[1D	.	1d	.
=108.	=108	=108.	=108	=108.	=108	=108.	=108
0AA	.	0F	.	1D]	.	1r	.
.	.	.	.	1C	.	1A	qui
=109	=109	=109	=109	=109	=109	=109	=109
0GG	-i,	0G	cre-	1D	-i,	1.B	.
.	.	.	.	1E	.	.	.
.	.	.	.	.	.	2c/	.
=110.	=110	=110.	=110	=110.	=110	=110.	=110
1.D	qui	0A	-di-	0F	.	0A	.
2E\	.	.	.	.	.	.	.
=111	=111	=111	=111	=111	=111	=111	=111
1F	.	1.A	-di-	1D	qui	0a	tol-
1D	.	.	.	1F	.	.	.
.	.	2B\	.	.	.	.	.
=112.	=112	=112.	=112	=112.	=112	=112.	=112
1E	tol-	1c	.	1G	tol-	1g	.
1F	.	[1d	.	1A	.	1f	.
=113	=113	=113	=113	=113	=113	=113	=113
1G	.	2d\]	.	1B	.	1d	.
.	.	2c\	.	.	.	.	.
1E	.	[1c	.	1G	.	1e	.
=114.	=114	=114.	=114	=114.	=114	=114.	=114
0D	.	1c]	.	2A/	.	1.f	.
.	.	.	.	1F	.	.	.
.	.	1B	.	.	.	.	.
.	.	.	.	2E/	.	2g/	.
=115	=115	=115	=115	=115	=115	=115	=115
[0C	-lis	[0c	-sti;	1G	-lis	0e	-lis
.	.	.	.	1r	.	.	.
=116.	=116	=116.	=116	=116.	=116	=116.	=116
0C]	.	0c]	.	2E/	pec-	1r	.
.	.	.	.	2F/	.	.	.
.	.	.	.	[1G	-ca-	1c	pec-
=117	=117	=117	=117	=117	=117	=117	=117
1GG	pec-	0r	.	2G/]	.	1d	.
.	.	.	.	2F/	.	.	.
1C	.	.	.	1E	.	2e/	-ca-
.	.	.	.	.	.	[2g/	.
=118.	=118	=118.	=118	=118.	=118	=118.	=118
1BB-	-ca-	0r	.	1D	.	2g/]	.
.	.	.	.	.	.	2f/	.
1C	.	.	.	1E	.	1e	.
=119	=119	=119	=119	=119	=119	=119	=119
0D	.	1A	per-	0F	.	0d	.
.	.	1B	-fi-	.	.	.	.
=120.	=120	=120.	=120	=120.	=120	=120.	=120
0C	.	1c	-ci-	1G	.	1.e	.
.	.	1A	.	1E	.	.	.
.	.	.	.	.	.	2f/	.
=121	=121	=121	=121	=121	=121	=121	=121
1D	.	1A	-en-	1F	.	0d	-ta
1BB-	.	1G	.	[1D	.	.	.
=122.	=122	=122.	=122	=122.	=122	=122.	=122
0AA	.	0F	-tur	1D]	.	1r	.
.	.	.	.	1C	.	1A	mun-
=123	=123	=123	=123	=123	=123	=123	=123
0GG	-ta	1G	in	0D	-ta	1B	.
.	.	[1G	.	.	.	2c/	.
.	.	.	.	.	.	[2d/	.
=124.	=124	=124.	=124	=124.	=124	=124.	=124
0D	mun-	1G]	.	0r	.	2d/]	.
.	.	.	.	.	.	2c/	.
.	.	1F#i	.	.	.	1A	.
=125	=125	=125	=125	=125	=125	=125	=125
[0GG	-di,	[0G	te	[0d	mun-	1B	-di,
.	.	.	.	.	.	1G	.
=126.	=126	=126.	=126	=126.	=126	=126.	=126
0GG]	.	0G]	.	0d]	.	1r	.
.	.	.	.	.	.	2B/	mun-
.	.	.	.	.	.	2c/	.
=127	=127	=127	=127	=127	=127	=127	=127
0r	.	0G	que	1B	.	2d/	.
.	.	.	.	.	.	2e/	.
.	.	.	.	1G	.	2d/	.
.	.	.	.	.	.	[2g/	.
=128.	=128	=128.	=128	=128.	=128	=128.	=128
0r	.	1G	dic-	1d	.	2g/]	.
.	.	.	.	.	.	2f/	.
.	.	[1A	.	1c	.	2e/	.
.	.	.	.	.	.	2d/	.
=129	=129	=129	=129	=129	=129	=129	=129
0r	.	2A/]	.	0A	.	1e	.
.	.	2G/	.	.	.	.	.
.	.	1F	.	.	.	2f/	.
.	.	.	.	.	.	2d/	.
=130.	=130	=130.	=130	=130.	=130	=130.	=130
0r	.	0E	-ta	1.G	.	2e/	.
.	.	.	.	.	.	1c#i	.
.	.	.	.	2F/	.	2B/	.
=131	=131	=131	=131	=131	=131	=131	=131
0r	.	0D	sunt	1A	.	0d	-di,
.	.	.	.	1B	.	.	.
=132.	=132	=132.	=132	=132.	=132	=132.	=132
1D	do-	0F	ti-	2A/	.	0r	.
.	.	.	.	2.d\	.	.	.
1F	.	.	.	.	.	.	.
.	.	.	.	4c\	.	.	.
.	.	.	.	2d\	.	.	.
=133	=133	=133	=133	=133	=133	=133	=133
0E	.	0G	-bi	2e\	.	0r	.
.	.	.	.	2B\	.	.	.
.	.	.	.	2c#i\	.	.	.
.	.	.	.	4B\	.	.	.
.	.	.	.	4c#i\	.	.	.
=134.	=134	=134.	=134	=134.	=134	=134.	=134
1.D	.	0A	.	1d	-di,	0r	.
.	.	.	.	1r	.	.	.
2E\	.	.	.	.	.	.	.
=135	=135	=135	=135	=135	=135	=135	=135
1F	.	1A	a	2c\	do-	0r	.
.	.	.	.	2A/	.	.	.
1G	.	[1G	do-	[1B	.	.	.
=136.	=136	=136.	=136	=136.	=136	=136.	=136
1.E	.	1G]	.	2B\]	.	0r	.
.	.	.	.	2c\	.	.	.
.	.	1G	-mi-	2B\	.	.	.
2C/	.	.	.	2A/	.	.	.
=137	=137	=137	=137	=137	=137	=137	=137
0C	.	1.G	-no.	1c	.	0r	.
.	.	.	.	2G/	.	.	.
.	.	2E/	.	[2A/	.	.	.
=138.	=138	=138.	=138	=138.	=138	=138.	=138
1D	.	1F	.	2A/]	.	0r	.
.	.	.	.	2B\	.	.	.
1AA	.	[1E	.	2.c\	.	.	.
.	.	.	.	4B\	.	.	.
=139	=139	=139	=139	=139	=139	=139	=139
1C	.	2E/]	.	2A/	.	0r	.
.	.	2D/	.	2G/	.	.	.
1BB-	.	[1D	.	[1G	.	.	.
=140.	=140	=140.	=140	=140.	=140	=140.	=140
0AA	.	1D]	.	2G/]	.	0r	.
.	.	.	.	2F#i/	.	.	.
.	.	1C	.	2F#i/	.	.	.
.	.	.	.	2E/	.	.	.
=141	=141	=141	=141	=141	=141	=141	=141
[0GG	-na	0D	.	1G	-na	1.B	do-
.	.	.	.	1r	.	.	.
.	.	.	.	.	.	2c/	.
=142.	=142	=142.	=142	=142.	=142	=142.	=142
0GG]	.	0r	.	0B	no-	1d	-na
.	.	.	.	.	.	1g	no-
=143	=143	=143	=143	=143	=143	=143	=143
0D	.	0F	Al-	0A	-bis	1f	.
.	.	.	.	.	.	[1a	.
=144.	=144	=144.	=144	=144.	=144	=144.	=144
1r	.	0F	-le-	0d	pa-	2a/]	.
.	.	.	.	.	.	2g/	.
1D	no-	.	.	.	.	1f	.
=145	=145	=145	=145	=145	=145	=145	=145
1E	.	[0G	.	1B	.	2e/	.
.	.	.	.	.	.	1g	.
1C	-bis	.	.	1c	.	.	.
.	.	.	.	.	.	2f/	.
=146.	=146	=146.	=146	=146.	=146	=146.	=146
1G	pa-	0G]	.	2d\	.	1d	-bis
.	.	.	.	1B	.	.	.
1E	.	.	.	.	.	[1e	pa-
.	.	.	.	2A/	.	.	.
=147	=147	=147	=147	=147	=147	=147	=147
0C	.	[0G	-lu-	2c\	.	2e/]	.
.	.	.	.	2r	.	2c/	.
.	.	.	.	1C	.	[1c	.
=148.	=148	=148.	=148	=148.	=148	=148.	=148
0GG	.	0G]	.	0D	.	2c/]	.
.	.	.	.	.	.	2B/	.
.	.	.	.	.	.	2B/	.
.	.	.	.	.	.	2A/	.
=149	=149	=149	=149	=149	=149	=149	=149
[0Cl	-cem.	[0Gl	-ia.	1.E	.	[0cl	-cem.
.	.	.	.	2C/	.	.	.
=150.	=150	=150.	=150	=150.	=150	=150.	=150
0C]	.	0G]	.	0Cl	-cem.	0c]	.
==	==	==	==	==	==	==	==
*-	*-	*-	*-	*-	*-	*-	*-
!!!RDF**kern: l=long note in original notation
!!!RDF**kern: i=editorial accidental
!!!RDF**kern: V=start of tuplet marker
!!!RDF**kern: Z=end of tuplet marker
!!!ENC:	Alejandro Planchart
!!!END:	2014/07/25/
!!!EED:	Alejadro Planchart, Jesse Rodin
!!!EEV:	2014/07/27/
!!!ONB:	Translated from SCORE and edited on 2014/07/27/ by Craig Sapp
!!!SMS: Ed. J. Rodin based on edition by A. Planchart
!!muse2ps: T^@{OPR}^u^@{ONM}{. }@{OTL}^C^@{COM}\n@{SMS}^i2I150v85,85,85,130c160z18
